img/icon-github-issue-1.svg

<svg fill="none" height="14" viewBox="0 0 14 14" width="14" xmlns="http://www.w3.org/2000/svg" xmlns:xlink="http://www.w3.org/1999/xlink"><clipPath id="a"><path d="m0 0h14v14h-14z"/></clipPath><g clip-path="url(#a)"><path clip-rule="evenodd" d="m7 1.3c3.14 0 5.7 2.56 5.7 5.7s-2.56 5.7-5.7 5.7c-1.51092-.0026-2.9592-.604-4.02759-1.6724-1.06838-1.0684-1.66977-2.51668-1.67241-4.0276 0-3.14 2.56-5.7 5.7-5.7zm0-1.3c-3.86 0-7 3.14-7 7s3.14 7 7 7 7-3.14 7-7-3.14-7-7-7zm1 3h-2v5h2zm0 6h-2v2h2z" fill="#000" fill-rule="evenodd"/></g></svg>

<svg width="14" height="14" viewBox="0 0 14 14" fill="none" xmlns="http://www.w3.org/2000/svg">
<g clip-path="url(#clip0_3422_3553)">
<path fill-rule="evenodd" clip-rule="evenodd" d="M7 1.3C10.14 1.3 12.7 3.86 12.7 7C12.7 10.14 10.14 12.7 7 12.7C5.48908 12.6974 4.0408 12.096 2.97241 11.0276C1.90403 9.9592 1.30264 8.51092 1.3 7C1.3 3.86 3.86 1.3 7 1.3ZM7 0C3.14 0 0 3.14 0 7C0 10.86 3.14 14 7 14C10.86 14 14 10.86 14 7C14 3.14 10.86 0 7 0ZM8 3H6V8H8V3ZM8 9H6V11H8V9Z" fill="black"/>
</g>
<defs>
<clipPath id="clip0_3422_3553">
<rect width="14" height="14" fill="white"/>
</clipPath>
</defs>
</svg>
